src/assets/icons/real-estate/bills.svg

<svg width="48" height="48" viewBox="0 0 48 48" fill="none" xmlns="http://www.w3.org/2000/svg"><path fill-rule="evenodd" clip-rule="evenodd" d="M36 26.5c0-1.103.897-2 2-2v2h-2zm-26 3h28v-1H10v1zm0 3h28v-1H10v1zm28 3l-28 .063V34.5h28v1zm-28.031-23L38 12.469V14.5c-1.103 0-2-.897-2-2h-2c0 2.206 1.794 4 4 4v6c-2.206 0-4 1.794-4 4H14c0-2.206-1.794-4-4-4v2c1.103 0 2 .897 2 2H9.998l-.029-14zm28.062-2A1.97 1.97 0 0140 12.469V35.563a1.94 1.94 0 01-1.937 1.937H9.938A1.94 1.94 0 018 35.563V12.469A1.97 1.97 0 019.969 10.5h28.062zM24 16.5c1.654 0 3 1.346 3 3s-1.346 3-3 3-3-1.346-3-3 1.346-3 3-3zm0 8c2.757 0 5-2.243 5-5s-2.243-5-5-5-5 2.243-5 5 2.243 5 5 5zm-10-12h-2c0 1.103-.897 2-2 2v2c2.206 0 4-1.794 4-4z" fill="#253238"/></svg>

<svg width="48" height="48" viewBox="0 0 48 48" fill="none" xmlns="http://www.w3.org/2000/svg">
<path fill-rule="evenodd" clip-rule="evenodd" d="M36 26.5C36 25.397 36.897 24.5 38 24.5V26.5H36ZM10 29.5H38V28.5H10V29.5ZM10 32.5H38V31.5H10V32.5ZM38 35.5L10 35.563V34.5H38V35.5ZM9.969 12.5L38 12.469V14.5C36.897 14.5 36 13.603 36 12.5H34C34 14.706 35.794 16.5 38 16.5V22.5C35.794 22.5 34 24.294 34 26.5H14C14 24.294 12.206 22.5 10 22.5V24.5C11.103 24.5 12 25.397 12 26.5H9.998L9.969 12.5ZM38.031 10.5C39.117 10.5 40 11.383 40 12.469V26.5V28.5V29.5V31.5V32.5V34.5V35.563C40 36.631 39.131 37.5 38.063 37.5H9.938C8.869 37.5 8 36.631 8 35.563V34.5V32.5V31.5V29.5V28.5V26.5V12.469C8 11.383 8.883 10.5 9.969 10.5H38.031ZM24 16.5C25.654 16.5 27 17.846 27 19.5C27 21.154 25.654 22.5 24 22.5C22.346 22.5 21 21.154 21 19.5C21 17.846 22.346 16.5 24 16.5ZM24 24.5C26.757 24.5 29 22.257 29 19.5C29 16.743 26.757 14.5 24 14.5C21.243 14.5 19 16.743 19 19.5C19 22.257 21.243 24.5 24 24.5ZM14 12.5H12C12 13.603 11.103 14.5 10 14.5V16.5C12.206 16.5 14 14.706 14 12.5Z" fill="#253238"/>
</svg>
